X:128
T:Waltz by Strauss. Le4.128
M:3/4
L:1/4
Q:1/4=140
B:L.Leadley MS#4 c1850
Z:Village Music Project, 2016 Ruairidh Greig
K:F
f|ezd|czB|d2c|(c/a/).a/.a/.a/.a/|
b2a|(c/g/).g/.g/.g/.g/|a2g|fzf|
ezd|czB|d2c|(c/c'/).c'/.c'/.c'/.c'/|
b2a|(c/a/).a/.a/.a/.a/|fza|f2:|
e|(f2g)|a2f|e2f|g3|
(d2e)|f3|(c2d)|e3|
(f2g)|b>ag/f/|e2f|a>gf/e/|
d2e|g>fe/d/|c c/=B/c/=B/|cz||
|:a/a/ag|f/f/fc|d/d/dc|d/d/dc|
a/a/ag|f/f/fc|d/d/de|ffz:|
|:A2=B/^c/|d/^c/d/e/f|G2A/=B/|c/=B/c/d/c|
a/a/ag|f/f/fc|d/d/dc|d/d/dc|
a/a/ag|f/f/fc|d/d/de|ffz:|

